src/images/vscode-logo.svg

<svg width="1010" height="1018" xmlns="http://www.w3.org/2000/svg" xmlns:xlink="http://www.w3.org/1999/xlink"><defs><path d="M543 781.4C435.5 673.9 346.8 585.5 346 585.1c-1.1-.6-34.5 25.3-125.3 97.1l-123.8 98-47.7-24.5-47.7-24.5L1 489.5c-.5-241-.5-241.8 1.5-243 1.1-.7 22.8-11.9 48.2-24.9l46.2-23.7 124.2 98.2 124.2 98.1 196.8-196.8L738.9.6l47.3 19.1c26 10.4 80.2 32.2 120.5 48.4l73.2 29.4.1 391.2c0 370.2-.1 391.3-1.8 392.2-2.8 1.5-238 96.1-238.9 96.1-.4 0-88.8-88-196.3-195.6zm194.3-291.6c-.3-110.7-.5-201.6-.6-202.1-.1-.4-58.2 44.6-129 99.9-70.8 55.3-128.6 101.1-128.4 101.7.4 1.4 255.9 201.5 257.3 201.6.9.1 1-51.6.7-201.1zm-566.9 74.7c40.5-41 73.6-75 73.6-75.5 0-.7-109.7-114.7-140.1-145.5l-7.9-8v151.8c0 83.4.2 151.7.4 151.7s33.5-33.5 74-74.5z" id="a"/><mask id="b" maskContentUnits="userSpaceOnUse" maskUnits="objectBoundingBox" x="-15" y="-15" width="1009.278" height="1006.4"><path fill="#fff" d="M-14.278-14.4H995V992H-14.278z"/><use xlink:href="#a"/></mask></defs><g fill="none" fill-rule="evenodd"><g fill-rule="nonzero" transform="matrix(1 0 0 -1 15 1001)"><use fill="#0060B1" fill-rule="evenodd" xlink:href="#a"/><use stroke="#FFF" mask="url(#b)" stroke-width="30" xlink:href="#a"/></g><path d="M752.3 511.2c-.3 110.7-.5 201.6-.6 202.1-.1.4-58.2-44.6-129-99.9-70.8-55.3-128.6-101.1-128.4-101.7.4-1.4 255.9-201.5 257.3-201.6.9-.1 1 51.6.7 201.1zm-566.9-74.7c40.5 41 73.6 75 73.6 75.5 0 .7-109.7 114.7-140.1 145.5l-7.9 8V513.7c0-83.4.2-151.7.4-151.7s33.5 33.5 74 74.5z" fill="#FFF"/></g></svg>

<?xml version="1.0" encoding="UTF-8"?>
<svg width="1010px" height="1018px" viewBox="0 0 1010 1018" version="1.1" xmlns="http://www.w3.org/2000/svg" xmlns:xlink="http://www.w3.org/1999/xlink">
    <title>logo</title>
    <defs>
        <path d="M543,781.4 C435.5,673.9 346.8,585.5 346,585.1 C344.9,584.5 311.5,610.4 220.7,682.2 L96.9,780.2 L49.2,755.7 L1.5,731.2 L1,489.5 C0.5,248.5 0.5,247.7 2.5,246.5 C3.6,245.8 25.3,234.6 50.7,221.6 L96.9,197.9 L221.1,296.1 L345.3,394.2 L542.1,197.4 L738.9,0.6 L786.2,19.7 C812.2,30.1 866.4,51.9 906.7,68.1 L979.9,97.5 L980,488.7 C980,858.9 979.9,880 978.2,880.9 C975.4,882.4 740.2,977 739.3,977 C738.9,977 650.5,889 543,781.4 Z M737.3,489.8 C737,379.1 736.8,288.2 736.7,287.7 C736.6,287.3 678.5,332.3 607.7,387.6 C536.9,442.9 479.1,488.7 479.3,489.3 C479.7,490.7 735.2,690.8 736.6,690.9 C737.5,691 737.6,639.3 737.3,489.8 Z M170.4,564.5 C210.9,523.5 244,489.5 244,489 C244,488.3 134.3,374.3 103.9,343.5 L96,335.5 L96,487.3 C96,570.7 96.2,639 96.4,639 C96.6,639 129.9,605.5 170.4,564.5 Z" id="path-1"></path>
        <mask id="mask-2" maskContentUnits="userSpaceOnUse" maskUnits="objectBoundingBox" x="-15" y="-15" width="1009.27778" height="1006.4">
            <rect x="-14.2777778" y="-14.4" width="1009.27778" height="1006.4" fill="white"></rect>
            <use xlink:href="#path-1" fill="black"></use>
        </mask>
    </defs>
    <g id="Page-1" stroke="none" stroke-width="1" fill="none" fill-rule="evenodd">
        <g id="logo" transform="translate(505.000000, 512.500000) scale(-1, 1) rotate(-180.000000) translate(-505.000000, -512.500000) translate(15.000000, 24.000000)">
            <g id="Shape" fill-rule="nonzero">
                <use fill="#0060B1" fill-rule="evenodd" xlink:href="#path-1"></use>
                <use stroke="#FFFFFF" mask="url(#mask-2)" stroke-width="30" xlink:href="#path-1"></use>
            </g>
            <path d="M737.3,489.8 C737,379.1 736.8,288.2 736.7,287.7 C736.6,287.3 678.5,332.3 607.7,387.6 C536.9,442.9 479.1,488.7 479.3,489.3 C479.7,490.7 735.2,690.8 736.6,690.9 C737.5,691 737.6,639.3 737.3,489.8 Z" id="Path" fill="#FFFFFF"></path>
            <path d="M170.4,564.5 C210.9,523.5 244,489.5 244,489 C244,488.3 134.3,374.3 103.9,343.5 L96,335.5 L96,487.3 C96,570.7 96.2,639 96.4,639 C96.6,639 129.9,605.5 170.4,564.5 Z" id="Path-Copy" fill="#FFFFFF"></path>
        </g>
    </g>
</svg>
